X:1
T:F Major Jacob French, 1802
T:Isaac Watts, 1719 (Psalm 24)   88. 88. (L. M.)
T:Northampton
T:Transcribed from Harmony of Harmony, 1802
%%score [ 1 2 3 4 ]
L:1/8
Q:1/4=90
M:2/4
K:F
V:1 treble nm="Treble" snm="Tr."
V:2 treble nm="Counter" snm="C."
V:3 treble-8 nm="Tenor" snm="T."
V:4 bass nm="Bass" snm="B."
V:1
!mf! c2 | Ac cA | f3 c | dB AG | A3 f | f2 d2 | g3 c | =B2 B2 | c4 |!p! cA A/B/c | d3 e | fe dc | %12
w: 1.~Re-|joice, * ye *|shi- ning|worlds * on *|high, Be-|hold the|King of|glo- ry|nigh!|Who * can * this|King of|glo- * ry *|
 d2!f! z !wedge!f | !wedge!c2 !wedge!c2 | !wedge!c2 z!p! F | A2 A2 | A2 z!f! !wedge!c | %17
w: be? The|migh- ty|Lord, the|Sa- vior|he. The|
 !wedge!c2 !wedge!c2 | !wedge!c2 z!p! A | c2 c2 | c2 z!mf! A | c2 fe | dc B/c/d | c2 c2 | c4- | %25
w: migh- ty|Lord, the|Sa- vior|he. The|migh- ty *|Lord, * the * *|Sa- vior|he.|
 c4 |] %26
w: |
V:2
 C2 | CF F2 | A3 F | GF c2 | c3 A | BA GF | G3 A | G2 F2 | E4 | %9
w: 2.~Ye|heav'n- * ly|gates, your|leaves * dis-|play, To|make * the *|Lord, the|Sa- vior,|way:|
"^La    –     den   with  spoils from   earth   and       hell," z4 | z4 | z4 | z2 z !wedge!F | %13
w: |||The|
 !wedge!A2 !wedge!A2 | !wedge!A2"^with" z2 |"^God to dwell." z4 | z2 z !wedge!A | %17
w: Con- queror|comes||The|
 !wedge!c2 !wedge!c2 | !wedge!c2"^with    God  to     dwell." z2 | z4 | z2 z A | A2 A2 | F2 G2 | %23
w: Con- queror|comes||The|Con- queror|comes with|
 F2 [EG]2 | [FA]4- | [FA]4 |] %26
w: God to|dwell.||
V:3
 C2 | FA Ac | c3 A | Bd c/d/e | f3 c | d2 d2 | d3 f | e2 d2 | c4 | AF F/G/A | B3 c | dc BA | %12
w: 3.~Raised|from * the *|dead, he|goes * be- * *|fore; He|o- pens|heav'n's e-|ter- nal|door,|To * give * his|saints a|blest * a- *|
 [GB]2 z !wedge!c | !wedge!f2 !wedge!f2 | !wedge!f2"^mer   and   their  God," z2 | z4 | %16
w: bode, Near|their Re-|dee~~~–||
 z2 z !wedge!f | !wedge!g2 !wedge!g2 | !wedge!g2"^mer   and   their  God," z2 | z4 | z2 z c | %21
w: Near|their Re-|dee~~~–||Near|
 fe dc | BA G/A/B | A2 G2 | F4- | F4 |] %26
w: their * Re- *|dee- * mer * *|and their|God.||
V:4
 [F,,C,]2 | [F,,C]2 [F,,A,]2 | [F,,F,]3 [F,,F,] | [B,,B,]2 [C,C]2 | F,3 F, | B,2 B,2 | G,3 F, | %7
 G,2 G,2 | C,4 | z4 | z4 | z4 | z2 z !wedge!F, | !wedge!F,2 !wedge!F,2 | !wedge!F,2 z F, | %15
 D,2 D,2 | D,2 z F, | C2 C2 | C2 z A, | F,2 F,2 | F,2 z F, | F,2 F,2 | B,,2 [B,,B,]2 | [C,C]2 C,2 | %24
 [F,,F,]4- | [F,,F,]4 |] %26

